X:199
T:Anne Fraser MacKenzie
C:Joe Buchanan's Scottish Tome - Page 278.1
I:278 1
R:Jig
Z:Carl Allison
L:1/8
M:6/8
K:A
E | "A"A2 A "E7"GAB | "A"A2 A "E7"BGE | "A"c2 c "E7"Bcd | "A"edc "E7"BAG |
"A"A2 A "E7"GAB | "A"c2 c "D"dcd | "A"edB "E7"EFG | "A"A3 A2 :|
(c/d/) | "A"e2 c "A7"aga | "D"f2 d "E7"Bcd | "A"c2 A "F#m"edc | "B7"Bcd "E7"efg |
"A"a2 a "E"gaf | "A"edc dcd | "A"edB "E7"EFG | "A"A3 A2 :|

